packages/core/src/svgs/tokens/branded/OOKI.svg

<svg width="24" height="24" viewBox="0 0 24 24" fill="none" xmlns="http://www.w3.org/2000/svg">
<path fill-rule="evenodd" clip-rule="evenodd" d="M15.8644 20.997C14.6637 21.4682 13.3809 21.6943 12.0915 21.662C10.7873 21.7186 9.4851 21.5105 8.26333 21.0502C7.04161 20.5901 5.9257 19.8875 4.98278 18.9845C4.03989 18.0816 3.28951 16.9972 2.77689 15.7966C2.26427 14.5958 2 13.3039 2 11.9984C2 10.6929 2.26427 9.40086 2.77689 8.20026C3.28951 6.99962 4.03989 5.91517 4.98278 5.01225C5.9257 4.10933 7.04161 3.40662 8.26333 2.94648C9.4851 2.48632 10.7873 2.27826 12.0915 2.33479C13.3809 2.30252 14.6637 2.52863 15.8644 2.99976C17.065 3.4709 18.1594 4.17755 19.0826 5.07809C20.006 5.97864 20.7398 7.05485 21.2409 8.24335C21.7418 9.43191 22 10.7086 22 11.9984C22 13.2882 21.7418 14.5649 21.2409 15.7534C20.7398 16.942 20.006 18.0181 19.0826 18.9188C18.1594 19.8193 17.065 20.5259 15.8644 20.997ZM8.88948 11.8369C8.77604 11.9504 8.62218 12.0141 8.46173 12.0141C8.3013 12.0141 8.14744 11.9504 8.034 11.8369C7.92054 11.7235 7.85681 11.5696 7.85681 11.4091C7.85681 11.2488 7.92054 11.0949 8.034 10.9814C8.14744 10.868 8.3013 10.8043 8.46173 10.8043C8.62218 10.8043 8.77604 10.868 8.88948 10.9814C9.00292 11.0949 9.06665 11.2488 9.06665 11.4091C9.06665 11.5696 9.00292 11.7235 8.88948 11.8369ZM16.1486 11.8369C16.0351 11.9504 15.8812 12.0141 15.7207 12.0141C15.5604 12.0141 15.4065 11.9504 15.2931 11.8369C15.1796 11.7235 15.1159 11.5696 15.1159 11.4091C15.1159 11.2488 15.1796 11.0949 15.2931 10.9814C15.4065 10.868 15.5604 10.8043 15.7207 10.8043C15.8812 10.8043 16.0351 10.868 16.1486 10.9814C16.2619 11.0949 16.3257 11.2488 16.3257 11.4091C16.3257 11.5696 16.2619 11.7235 16.1486 11.8369ZM11.1718 12.3468C11.1838 12.1593 11.3049 12.0262 11.4863 12.0141H12.7023C12.8293 12.0141 12.9805 12.135 13.0046 12.2742C13.0289 12.4195 12.9987 12.5344 12.9503 12.6675C12.9019 12.7945 12.8353 12.9094 12.7325 13.0001C12.557 13.1634 12.3393 13.224 12.1034 13.224C11.8674 13.2179 11.6194 13.1513 11.4379 12.9941C11.2626 12.8429 11.1597 12.5888 11.1718 12.3468Z" fill="#F6BE4E"/>
<path opacity="0.69" d="M21.6611 10.5258C22.883 15.0749 19.677 19.9445 14.5653 21.3115C9.45986 22.6787 4.24543 20.0594 3.02954 15.5043C5.42502 18.408 9.56261 19.6662 13.543 18.7165C17.7412 17.7183 20.9956 14.4397 21.6611 10.5258Z" fill="#E38329"/>
</svg>

<svg xmlns="http://www.w3.org/2000/svg" width="24" height="24" fill="none" viewBox="0 0 24 24">
    <path fill="#F6BE4E" fill-rule="evenodd" d="M15.864 20.997a9.7 9.7 0 0 1-3.773.665 9.67 9.67 0 0 1-9.314-5.865A9.674 9.674 0 0 1 12.09 2.335a9.667 9.667 0 0 1 3.773 18.662m-6.975-9.16a.605.605 0 1 1-.855-.855.605.605 0 0 1 .855.855m7.26 0a.605.605 0 1 1-.856-.856.605.605 0 0 1 .856.856m-4.977.51c.012-.188.133-.32.314-.333h1.216a.34.34 0 0 1 .303.26.73.73 0 0 1-.055.394.8.8 0 0 1-.217.332c-.176.163-.394.224-.63.224-.236-.006-.484-.073-.665-.23a.82.82 0 0 1-.266-.647" clip-rule="evenodd"/>
    <path fill="#E38329" d="M21.661 10.526c1.222 4.549-1.984 9.419-7.096 10.785C9.46 22.68 4.245 20.06 3.03 15.504c2.395 2.904 6.533 4.162 10.513 3.213 4.198-.999 7.453-4.277 8.118-8.191" opacity=".69"/>
</svg>
